X: 1
T: Lindesn\"as polska fr Orsa
C: trad efter Bleck\aa Anders Olsson
O: Sweden
R: polska
S: Fiddle Hell Online 2021-05-26
Z: 2021 John Chambers <jc:trillian.mit.edu>
M: 3/4
L: 1/8
K: Ddor
|:\
(3vA2(e2g2) f>e | (3(d^cd) (ue/f/)e/d/ c>B | (3vA2e2f2 (uf/a/)f/d/ | (vd/e/)d/^c/ uA4 :|
|:\
a>(ug b)>a a2 | (gb) (3:2:2(a2g) g/a/g/e/ | (3(vfef) (3:2:2(g2e) (3:2:2f2d |1 (3d2^c2B2 A2 :|2 (v^c/B/)c/e/ ud4 |]
